!!!COM: Carl Loewe				
!!!CNT: Deutscher				
!!!TXO: Deutsch				
!!!OTL: "Archibald Douglas"				
!!!LYR: Fontaine					 			
!!!OPS: Op. 128 						
!!!ENC: O'Neal Douglas 					
!!!YOR: Twelve Songs and Ballads Vol. 1 and 2				
!!!YOR: New York:Schirmer, 1903					
!!!ODT: 1857/					
!!NB: Vocal melody and text encoded.
**kern	**text
*staff1	*staff1
=1-	=1-
*clefG2	*
*k[b-e-a-d-]	*
*met(C)	*
*M4/4	*
*MM60	*
1r	.
=2	=2
1r	.
=3	=3
1r	.
=4	=4
2r	.
8r	.
{8en	{"Ich
12e	hab'
12e	es
12e	ge-
=5	=5
4f	-tra-
4f	-gen
4f	sie-
4f	-ben
=6	=6
2a-	Jahr,
4r	.
8g-	und
8f	ich
=7	=7
[4f	kann
12f]	|
12B-	es-
12e-	-nicht
4A-	tra-
4e-	-gen
=8	=8
2f}	mehr,}
4r	.
{4a-	{wo
=9	=9
(12a-	im-
12g-	|
12f)	|
8.f	-mer
16f	die
4f	Welt
4f	am
=10	=10
(12f	scho2n-
12e-	|
12d-)	|
4d-	-sten
4d-	war,
(8.g-	da
16f)	|
=11	=11
4f	war
4e-	sie
4d-	o2d'
4e-	und
=12	=12
2.f}	leer.}
4r	.
=13	=13
1r	.
=14	=14
2r	.
4r	.
{8.en	{Ich
16e	will
=15	=15
4f	hin-
12f	-tre-
12f	-ten
12f	vor
4f	sein
4f	Ge-
=16	=16
2a-	-sicht
4r	.
(8g-	in
8f)	|
=17	=17
([4f	die-
12f]	|
12B-)	|
12e-	-ser
4A-	Kneehts-
4e-	-ge-
=18	=18
2f}	-stalt,}
4r	.
{4a-	{er
=19	=19
4a-	kann
(12a-	mei-
12g-)	|
12f	-ne
4f	Bit-
8.f	-te
16f	ver-
=20	=20
([4f	-sa-
12f]	|
12e-)	|
12d-	-gen
4d-	nicht,
(8.g-	ich
16f)	|
=21	=21
4f	bin
4e-	ja
4d-	wor-
8.e-	-den
16e-	so
=22	=22
2.f}	alt.}
4r	.
=23	=23
1r	.
=24	=24
2r	.
8r	.
{8en	{Und
8.e	tru2g'
16e	er
=25	=25
4f	noch
4f	den
4f	al-
4f	-ten
=26	=26
2.a-	Groll
4r	.
=27	=27
4a-	frisch
8.g	wie
16f	am
(4f	er-
8.g)	|
16en	-sten
=28	=28
2f}	Tag,}
4r	.
8.r	.
{16f	{so
=29	=29
4g-	kom-
4c	-me,
4r	.
8.f	was
16f	da
=30	=30
4g-	kom
4c	men
4f	soll
8.r	.
16cc	und
=31	=31
4dd-	kom-
4g	-me
4r	.
8.cc	was
16cc	da
=32	=32
2dd-}	mag!"}
2r	.
=33	=33
1r	.
=34	=34
1r	.
=35	=35
2r	.
4r	.
8.r	.
{16e-	{Graf
=36	=36
*k[b-e-a-]	*
*M3/4	*
8.e-	Dou-
16e-	-glas
4e-	spricht's,
8.r	.
16B-	am
=37	=37
8.d-	Weg
16c-	ein
4e-	Stein
8r	.
8e-	lud
=38	=38
8.e-	ihn
16e-	zu
4e-	har-
4f	-ter
=39	=39
2g}	Ruh'!}
8r	.
{8b-	{Er
=40	=40
8.b-	sah
16e-	in
4an	Wald
8r	.
8a	und
=41	=41
8.a-	Feld
16d	hin-
4g	-ein,
8r	.
8g	die
=42	=42
([4g	Au-
12g]	|
12c)	|
12f	-gen
12B-	fie-
12c	-len
12d	ihm
=43	=43
4e-}	zu}
4r	.
4r	.
=44	=44
2.r	.
=45	=45
2.r	.
=46	=46
2.r	.
=47	=47
4r	.
4r	.
8r	.
{8e-	{Er
=48	=48
8e-	trug
16e-	ei-
16e-	-nen
4.en	Har-
8e	-nisch
=49	=49
12f	ro-
12g	-stig
12f	und
4e-	schwer,
8r	.
8e-	da-
=50	=50
12f	-ru2-
12e-	-ber
12d	ein
4g	Pil-
4G	-ger-
=51	=51
4c}	-kleid.}
4r	.
4r	.
=52	=52
*k[b-]	*
*M6/8	*
2.r	.
=53	=53
2.r	.
=54	=54
2.r	.
=55	=55
2.r	.
=56	=56
2.r	.
=57	=57
2.r	.
=58	=58
2.r	.
=59	=59
2.r	.
=60	=60
4r	.
8r	.
4r	.
{8c	{Da
=61	=61
[4.f	horch,
8f]	|
8r	.
8c	da
=62	=62
[4.f	horch,
8f]	|
8r	.
8c	da
=63	=63
4.f	horch!
4.f	vom
=64	=64
[4.f	Wald-
4f]	|
8c	-rand
=65	=65
4.f	scholl
4.g	es
=66	=66
4.a}	her}
8.r	.
{16a	{wie
8a	von
=67	=67
[4.a	Ho2r-
8.a]	|
16g	-nern
8f	und
=68	=68
([4.g	Jagd-
8.g]	|
16f)	|
8e	-ge-
=69	=69
4.f}	-leit,}
4r	.
8r	.
=70	=70
4r	.
8r	.
4r	.
{8f	{und
=71	=71
4.dd-	Kies
4.dd-	und
=72	=72
4dd-	Staub
8dd-	auf-
8.dd-	-wir-
16dd-	-bel-
8dd-	-te
=73	=73
4.cc}	dicht,}
4r	.
8r	.
=74	=74
2.r	.
=75	=75
{4.dd-	{her
4b-	jag-
8b-	-te
=76	=76
[4.dd-	Meu-
8.dd-]	|
16cc	-te
8b-	und
=77	=77
4.cc}	Mann,}
4r	.
8r	.
=78	=78
2.r	.
=79	=79
2.r	.
=80	=80
4r	.
8r	.
4r	.
{8a	{und
=81	=81
8d	e-
8d	-he
8d	der
4e	Graf
8e	sich
=82	=82
4f	auf-
8f	-ge-
4g	-richt',
16g	wa-
16g	-ren
=83	=83
4a	Ross
8a	und
8.bn	Rei-
16b	-ter
8b	her-
=84	=84
4.cc}	-an.}
4r	.
8r	.
=85	=85
4r	.
8r	.
8r	.
{8cc	{Ko2-
8cc	-nig
=86	=86
4dd-	Ja-
8dd-	-cob
4a-	sass
8a-	auf
=87	=87
4b-	ho-
8b-	-hem
4f	Ross,
8f	Graf
=88	=88
4g-	Dou-
8g-	-glas
(8g-	gru2ss-
8f)	|
8e-	-te
=89	=89
4.d-}	tief.}
4r	.
{8f	{Dem
=90	=90
8.f	Ko2-
16f	-nig
8f	das
8.f	Blut
16f	in
8f	die
=91	=91
8.cc	Wan-
16cc	-gen
8cc	schoss,
4r	.
8c	der
=92	=92
4a-	Dou-
8a-	-glas
(8a-	a-
8g)	|
8f	-ber
=93	=93
(eq	|
2.g)}	rief:}
=94	=94
4r	.
8r	.
8r	.
{8cc	{"Ko2-
8cc	-nig
=95	=95
(8.cc	Ja-
16b-)	|
8a	-cob,
8a	schau-
8a	-e
8a	mich
=96	=96
(8.a	gna2-
16g)	|
8f	-dig
(8.f	an
16e)	|
8d	und
=97	=97
8.d	ho2-
16c	-re
8c	mich
4c	in
(cq	|
16B-	Ge-
16A)	|
=98	=98
4.A}	-duld,}
4r	.
{8B-	{was
=99	=99
4c	mei-
8c	-ne
8.f	Bru2-
16f	-der
8e-	dir
=100	=100
4e-	an-
8d	-ge-
4d	-than,
8d	was
=101	=101
4d	mei-
8d	-ne
8.g	Bru2-
16g	-der
8f	dir
=102	=102
4f	an-
8e	-ge-
4e	-than,
8e	es
=103	=103
4f	war
8f	nicht
4a	mei-
8g	-ne
=104	=104
2.g}	Schuld.}
=105	=105
4r	.
8r	.
{(8cc	{Denk'
8b-	|
8a)	|
=106	=106
*met(C)	*
*M4/4	*
4a	nicht
(12a	an-
12g)	|
12f	-den
4f	al-
4f	-ten
=107	=107
(12f	Dou-
12e	|
12d)	|
4d	-glas-
4d	-neid,
8.b-	der
16a	|
=108	=108
4a	tro-
4g	-tzig
4f	dich
4g	be-
=109	=109
2a}	-kriegt}
4r	.
{(12cc	{denk'
12b-	|
12a)	|
=110	=110
4a	lie-
(12a	-ber
12g)	|
12f	an
4f	dei-
4f	-ne
=111	=111
4f	Kin-
(12f	-der-
12e	|
12d)	|
4d	-zeit,
8d	wo
8d	ich
=112	=112
4.b-	dich
8a	auf
(8a	Knie-
8g)	|
8f	-en
8g	ge-
=113	=113
2a}	-wiegt,}
4r	.
{(12cc	{denk'
12b-	|
12a)	|
=114	=114
4a	lie-
(12a	-ber
12g)	|
12f	zu-
4f	-ru2ck
4f	an
=115	=115
(12f	Stir-
12e)	|
12d	|
4d	-lings-
4d	-Schloss,
8b-	wo
8a	ich
=116	=116
4a	Spiel-
4g	-zeug
4f	dir
4g	ge-
=117	=117
2a}	-schnitzt,}
4r	.
{(12cc	{dich
12b-)	|
12a	ge-
=118	=118
4a	-ho-
(12a	-ben
12g)	|
12f	auf
4f	dei-
4f	-nes
=119	=119
(12f	Va-
12e	|
12d)	|
4d	-ters
4d	Ross,
(8b-	und
8a)	|
=120	=120
(8a	Pfei-
8g)	|
8g	-le
8g	dir
(8a	zu-
8g)	|
(8f	-ge-
8g)	|
=121	=121
(gq	|
2a)}	-spitzt.}
4r	.
{(12cc	{Denk'
12b-	|
12a)	|
=122	=122
4a	lie-
(12a	-ber
12g)	|
12f	zu-
4f	-ru2ck
4f	an
=123	=123
(12f	Lin-
12e	|
12d)	|
4d	-lith-
4d	-gow,
8b-	an
8a	den
=124	=124
(8a	See
8g)	|
8c	und
8g	den
(8a	Vo-
8g)	|
(8f	-gel-
8g)	|
=125	=125
2a}	-heerd,}
4r	.
{(12cc	{wo
12b-	|
12a)	|
=126	=126
4a	ich
(12a	dich
12g	|
12f)	|
4f	fi-
8f	-schen
8f	und
=127	=127
(12f	ja-
12e	|
12d)	|
4d	-gen
4d	froh
(8b-	und
8a)	|
=128	=128
(8a	schwim
8g)	|
8c	men
8g	und
(8a	sprin-
8g)	|
8f	-gen
8g	ge-
=129	=129
2a}	-lehrt.}
4r	.
{(12cc	{Und
12b-	|
12a)	|
=130	=130
4a	denk'
(12a	an
12g	|
12f)	|
4f	al-
8f	-les,
8f	was
=131	=131
4f	ein-
(12f	-stens
12e	|
12d)	|
4d	war,
(8b-	und
8a)	|
=132	=132
(8a	sa2nf-
8g)	|
8g	-ti-
8g	-ge
(8a	dei-
8g)	|
(8f	-nen
8g)	|
=133	=133
2a}	Sinn,}
8r	.
{8cc	{ich
12cc	hab'
12cc	es
12cc	ge-
=134	=134
4bn	-tra-
4g	-gen
4.b-	sie-
8b-	-ben
=135	=135
2a}	Jahr,}
4r	.
{4a	{dass
=136	=136
4a	ich
4g	ein
4d	Dou-
4e	-glas
=137	=137
2f	bin,
8r	.
8f	dass
8f	ich
8f	ein
=138	=138
2.f	Dou-
(fq	|
4g)	-glas
=139	=139
(fq	|
gq	|
2.a)}	bin!"}
4r	.
=140	=140
1r	.
=141	=141
1r	.
=142	=142
1r	.
=143	=143
1r	.
=144	=144
2r	.
4r	.
8.r	.
{16f	{"Ich
=145	=145
8.d-	seh'
16d-	dich
4d-	nicht,
4r	.
8.r	.
16d-	Graf
=146	=146
8.c	Ar-
16c	-chi-
4c	-bald,
4r	.
8.r	.
16cc	ich
=147	=147
2d-	ho2r
8.r	.
32d-	dei-
32d-	-ne
8.d-	Stim-
16d-	-me
=148	=148
4c}	nicht,}
4r	.
4r	.
{4c	{mir
=149	=149
4c	ist,
4c	als
4c#	ob
4c#	eln
=150	=150
(12d	Rau-
12e	|
12f)	|
8f	-schem
8f#	im
4g	Wald
(8g	von-
8fn)	|
=151	=151
4f	al
4e	-ten
4d	Zei-
4e	-ten
=152	=152
2f}	spricht.}
4r	.
{4c	{Mir
=153	=153
4c	klingst
4c	das
4c#	Rau-
4c#	-schen
=154	=154
(12d	su2ss
12e	|
12f)	|
(8f	und
8f#)	|
(8g	traut,
8d	|
8.g)	|
16fn	ich
=155	=155
4f	lausch'
4e	ihm
4d	im-
4e	-mer
=156	=156
2f}	noch}
4r	.
8.r	.
{16f	{da-
=157	=157
8.d-	-zwi-
16d-	-schen
[4d-	a-
8.d-]	|
16d-	-ber
8.d-	klingt
16d-	es
=158	=158
4c}	laut:}
4r	.
4r	.
8.r	.
{16cc	{'er
=159	=159
8.d-	ist
16d-	ein
2d-	Dou-
4d-	-glas
=160	=160
4c	doch,
4r	.
4r	.
4A-	er
=161	=161
8.B-	ist
16G	ein
2d-	Dou-
4c	-glas
=162	=162
4F}	doch!}
4r	.
2r	.
=163	=163
2r	.
4r	.
8.r	.
{16f	{Ich
=164	=164
8.d-	seh'
16d-	dich
4d-	nicht,
4r	.
8.r	.
16d-	ich
=165	=165
8.c	ho2r
16c	dich
4c	nicht,
4r	.
8r	.
16cc	das
16cc	ist
=166	=166
8d-	al-
8d-	-les
4r	.
4r	.
8r	.
16d-	was
16d-	ich
=167	=167
4c}	kann,}
4r	.
4r	.
8.r	.
{16cc	{ein
=168	=168
4bn	Dou-
8.f	-glas
16f	vor
4..b-	mei
16b-	nem
=169	=169
8.b-	An-
16a	ge
4a	-sicht
4r	.
[4a-	wa2r'
=170	=170
4a-]	|
8.f	ein
16f	ver-
4..a-	-lor'-
16Bn	-ner
=171	=171
4c}	Mann!"}
4r	.
2r	.
=172	=172
2r	.
4r	.
{8c	{Ko2-
8c	-nig
=173	=173
*k[b-e-a-d-]	*
4f	Ja-
4f	-kob
4f	gab
8f	sei-
8f	-nem
=174	=174
4f	Ross
4g	den
4a-	Sporn,
8r	.
8a-	berg-
=175	=175
4a-	-an
4g	jetzt
4f	ging
4en	sein
=176	=176
2f}	Ritt.}
4r	.
{4c	{Graf
=177	=177
4f	Dou-
4f	-glas
4f	fass-
8f	-te
8f	den
=178	=178
4f	Zu2-
4g	-gel
4cc	vorn,
8r	.
8a-	und
=179	=179
4a-	hielt
8g	mit
8g	dem
4f	Ko2-
8en	-ni-
8e	-ge
=180	=180
2f}	Schritt.}
4r	.
8.r	.
{16e#	{Der
=181	=181
*k[f#c#g#]	*
4f#	Weg
4f#	war
4f#	steil
8f#	und
8f#	die
=182	=182
4f#	Son-
4g#	-ne
4a	stach,
8r	.
8a	sein
=183	=183
4a	Pan-
4g#	-zer-
4f#	-hemd
4e#	war
=184	=184
2f#}	schwer,}
4r	.
{4c#	{doch
=185	=185
4f#	ob
4f#	er
4.f#	schier
8f#	zu-
=186	=186
4f#	-sam-
4g#	-men-
4cc#	-brach,
8r	.
8a	er
=187	=187
4a	lief
4g#	doch
4f#	ne-
4e#	-ben-
=188	=188
2f#}	-her:}
4r	.
{8f#	{"Ko2-
8f#	-nig
=189	=189
*k[b-e-]	*
4g	Ja-
8g	-kob,
8g	ich
4g	war
4g	dein
=190	=190
4g	Se-
4a	-ne-
4b-	-schall,
8r	.
8b-	ich
=191	=191
8b-	will
8b-	es
4a	nicht
4g	fu2r-
4f#	-der
=192	=192
2g}	sein,}
4r	.
{4g	{ich
=193	=193
4a-	will
4a-	nur
4a-	tra2n-
8a-	-ken
8a-	dein
=194	=194
4a-	Ross
4b-	im
4cc-	Stall
8cc-	und
8cc-	ihm
=195	=195
4cc-	schu2t-
8b-	-ten
8b-	die
4a-	Ko2r-
4g	-ner
=196	=196
2a-}	ein,}
4r	.
{4an	{und
=197	=197
4b-	will
4b-	ihm
4b-	sel-
4b-	-ber
=198	=198
8b-	mach-
8b-	-en
4cc	die
4dd-	Streu
8dd-	und
8dd-	es
=199	=199
4dd-	tra2n-
8cc	-ken
8cc	mit
4b-	eig'-
4a	-ner
=200	=200
([1b-	Hand,
=201	=201
2b-]	|
4a-)}	|}
{(8g-	{nur
8f)	|
=202	=202
*k[b-e-a-d-g-]	*
2f	lass
2a-	mich
=203	=203
2.d-	ath-
4d-	-men
=204	=204
2.e-	wie-
8f	-der
8g-	auf's
=205	=205
2f	neu
4r	.
4a-	die
=206	=206
2dd-	Luft
4r	.
4d-	im
=207	=207
2d-	Va-
2e-	-ter-
=208	=208
[1f	-land,
=209	=209
4f]	|
4f	die
4a-	Luft
4g-	im
=210	=210
[1f	Va-
=211	=211
2.f]	|
(8e-	-ter-
8d-)	|
=212	=212
2.d-}	-land.}
4r	.
=213	=213
2r	.
4r	.
{4f	{Und
=214	=214
8.a-	willst
16a-	du
4a-	nicht,
8r	.
8a-	so
12a-	hab'
12b-	ei-
12cc	-nen
=215	=215
2dd-	Muth,
4r	.
8f	und
8f	ich
=216	=216
4e-	will
4e-	es
(e-q	|
fq	|
4g-	dan-
8f)	|
8e-	-ken
=217	=217
(e-q	|
2f)}	dir,}
8r	.
{8a-	{und
8b-	zieh'
8cc	dein
=218	=218
2dd-	Schwert,
8r	.
8f	und
8g-	triff
8a-	mich
=219	=219
2b-	gut
8r	.
8f-	und
8e-	lass
8d-	mich
=220	=220
2.b--	ster-
4a-	-ben
=221	=221
2d-}	hier!"}
2r	.
=222	=222
2r	.
4r	.
{8d-	{Ko2-
8d-	-nig
=223	=223
4d-	Ja-
4e-	-kob
4f	sprang
(8e-	her-
8f)	|
=224	=224
4g-	-ab
4b--	vom
2dd-	Pfed,
=225	=225
4an	hell
12a	leuch-
12a	-te-
12a	-te
4a	sein
4a	Ge-
=226	=226
2.a-}	-sicht,}
4r	.
=227	=227
1r	.
=228	=228
2r	.
4r	.
{8a-	{aus
8a-	der
=229	=229
4a-	Schei-
4b-	-de
4cc	zog
8b-	er
8cc	sein
=230	=230
4dd-	brei-
4d-	-tes
2a-}	Schwert,}
=231	=231
1r	.
=232	=232
2r	.
4r	.
{8a-	{a-
8a-	-ber
=233	=233
4an	fal-
4a	-len
2r	.
=234	=234
2r	.
6an	liess
6a	er
6a	es
=235	=235
2A-}	nicht.}
2r	.
=236	=236
1r	.
=237	=237
*k[b-]	*
1r	.
=238	=238
2r	.
4r	.
8r	.
{8c	{"Nimm's
=239	=239
4f	hin,
8r	.
8e	nimm's
4g	hin
8r	.
8f	und
=240	=240
4a	trag'
8a	es
8g	auf's
4b-	neu
8.a	und
16a	be-
=241	=241
4g	-wa-
8f	-che
8f	mir
4g	mei-
4c	-ne
=242	=242
2a}	Ruh';}
2r	.
=243	=243
{2cc	{der
4cc	ist
4cc	in
=244	=244
4bn	tief-
4g	-ster
4.b-	See-
8b-	-le
=245	=245
2a}	treu,}
4r	.
{8f	{wer
8g	die
=246	=246
2.a	Hei-
8g	-mat
8f	so
=247	=247
2g	liebt
4r	.
4c	wie
=248	=248
4cc	du,
4cc	der
4cc	ist
4cc	in
=249	=249
4bn	tief-
4g	-ster
4.b-	See-
8b-	-le
=250	=250
2.a	treu,
8f	wer
8g	die
=251	=251
2.a	Hei-
8g	-mat
8f	so
=252	=252
(2g	liebt,
4d)	|
4e	wie
=253	=253
2f}	du!}
4r	.
8r	.
{8c	{Zu
=254	=254
4f	Ross,
8r	.
8e	wir
4g	rei-
8g	-ten
8f	nach
=255	=255
4a	Lin-
4g	-lith-
4b-	-gow
8.a	und
16a	du
=256	=256
4g	rei-
8f	-test
8f	an
4g	mei-
4c	-ner
=257	=257
2a}	Seit';}
4r	.
{(12cc	{da
12b-	|
12a)	|
=258	=258
4a	wol-
(12a	len
12g)	|
12f	-wir
4f	fi-
8f	-schen
8f	und
=259	=259
4f	ja-
(12f	-gen
12e	|
12d)	|
4d	froh,
(12dd	da
12cc	|
12b-)	|
=260	=260
4b-	wol-
(12b-	-len
12a)	|
12g	wir
4g	fi-
8g	-schen
8g	und
=261	=261
4g	ja-
(12g	-gen
12f	|
12e)	|
4e	froh,
4c	als
=262	=262
4f	wie
4c	in
4g	al-
4c	-ter
=263	=263
[1cc	Zeit,
=264	=264
4cc]}	|}
{4cc	{als
4cc	wie
4cc	in
=265	=265
(4cc	al-
4b-)	|
(4a	-ter
4g)	|
=266	=266
4cc	Zeit,
4cc	als
4cc	wie
4cc	in
=267	=267
(2cc	al-
2b-)	|
=268	=268
(2a	-ter
2g)	|
=269	=269
2f}	Zeit."}
2r	.
=270	=270
1r	.
=271	=271
1r	.
=272	=272
1r	.
=273	=273
1r	.
==	==
*-	*-
